X:2977
T:Jenkin's Rise
O:england
R:Jig
M:6/8
C:Andy Hornby
A:Lancaster
N:Oct 95
K:D
A|\
AFd BGe|cAa fda|bge dce|dcB A3|\
AFd BGe|cAa fda|bge dce|d3 d2:|
|:f/g/|\
afd bge|cde afd|Bcd gfe|dcB A2a|\
afd bge|cde afd|Bgf edc|d3 d2:|
W:Copyright (C) Andy Hornby


